IMB-X-Files/The-Ambassadors-Assets/65f43207d4858435264167e3_VezaLogo.svg

<svg fill="none" height="20" viewBox="0 0 89 20" width="89" xmlns="http://www.w3.org/2000/svg"><g fill="#0e031e"><path d="m9.87138 20c12.79112 0 6.67362-19.222223 12.70762-19.222223.3059 0 .6396.055557 1.0289.166667v-.666667c-10.2051-1.083332-6.7292 13.916623-10.9002 18.111123l-.2503-.6389-8.87034-17.472223h-3.58706z"/><path d="m29.7045 16.8056v-5.3612h11.9013v-2.91662h-11.9013v-5.33334h13.7921v-2.916663h-17.1845v19.444423h17.3514v-2.9166z"/><path d="m50.3371 16.8056 12.0959-13.61116v-2.916663h-15.7664v2.916663h12.0125l-12.2628 13.61116v2.9166h16.9621v-2.9166z"/><path d="m65.4707 19.7222h3.6148l1.7519-3.5c1.1122-.6944 1.9186-.9722 2.586-.9722 1.7518 0 2.447 1.8333 4.449 1.8333 1.0845 0 2.5305-.5277 4.7272-2.1389l2.4192 4.7778h3.6148l-9.8991-19.7222h-3.3646zm11.5675-15.69442 5.3389 10.44442c-.8064.4722-1.4737.6389-2.0577.6389-1.8074 0-2.7528-1.8055-4.7827-1.8055-1.0289 0-2.3358.4722-4.1432 1.8333z"/></g></svg>

<svg width="89" height="20" viewBox="0 0 89 20" fill="none" xmlns="http://www.w3.org/2000/svg">
<path d="M9.87138 20C22.6625 20 16.545 0.777777 22.579 0.777777C22.8849 0.777777 23.2186 0.833334 23.6079 0.944444V0.277777C13.4028 -0.805555 16.8787 14.1944 12.7077 18.3889L12.4574 17.75L3.58706 0.277777H0L9.87138 20Z" fill="#0E031E"/>
<path d="M29.7045 16.8056V11.4444H41.6058V8.52778H29.7045V3.19444H43.4966V0.277777H26.3121V19.7222H43.6635V16.8056H29.7045Z" fill="#0E031E"/>
<path d="M50.3371 16.8056L62.433 3.19444V0.277777H46.6666V3.19444H58.6791L46.4163 16.8056V19.7222H63.3784V16.8056H50.3371Z" fill="#0E031E"/>
<path d="M65.4707 19.7222H69.0855L70.8374 16.2222C71.9496 15.5278 72.756 15.25 73.4234 15.25C75.1752 15.25 75.8704 17.0833 77.8724 17.0833C78.9569 17.0833 80.4029 16.5556 82.5996 14.9444L85.0188 19.7222H88.6336L78.7345 0H75.3699L65.4707 19.7222ZM77.0382 4.02778L82.3771 14.4722C81.5707 14.9444 80.9034 15.1111 80.3194 15.1111C78.512 15.1111 77.5666 13.3056 75.5367 13.3056C74.5078 13.3056 73.2009 13.7778 71.3935 15.1389L77.0382 4.02778Z" fill="#0E031E"/>
</svg>
